X:137
T:Oul' Jiggy Thing* (j)
B:NFID.230b  ("untitled jig")
137oul_jt
S:JL
L:1/8
M:6/8
R:jig
Q:320
K:Am
AAA G^FG|ABB cBc|dcd e^ff|g^fg edB|
ABA G^FG|ABB cBc|dcd e^fe|dcB A3:|
eaa aga|e^fg d^cd|e^fg gfg|bgg a/g/^fe|
eaa aga|e^fe dcd|e^fg gfg|edB A3:|

%%%

